icon-themes/breeze_svg/cmd/32/beforeobject.svg

<svg viewBox="0 0 32 32" xmlns="http://www.w3.org/2000/svg"><path d="m16 7-1 1-4 4 .707031.707031 3.792969-3.7929685v10.0859375h1v-10.0859375l3.792969 3.7929685.707031-.707031-4-4zm-12 14v1 6h1 5v-1h-5v-5h5v-1zm18 0v1h5v5h-5v1h5 1v-6-1zm-14 3v1h16v-1z" fill="#4d4d4d"/></svg>

<svg xmlns="http://www.w3.org/2000/svg" viewBox="0 0 32 32">
 <path 
     style="fill:#4d4d4d" 
     d="M 16 7 L 15 8 L 11 12 L 11.707031 12.707031 L 15.5 8.9140625 L 15.5 19 L 16.5 19 L 16.5 8.9140625 L 20.292969 12.707031 L 21 12 L 17 8 L 16 7 z M 4 21 L 4 22 L 4 28 L 5 28 L 10 28 L 10 27 L 5 27 L 5 22 L 10 22 L 10 21 L 4 21 z M 22 21 L 22 22 L 27 22 L 27 27 L 22 27 L 22 28 L 27 28 L 28 28 L 28 22 L 28 21 L 22 21 z M 8 24 L 8 25 L 24 25 L 24 24 L 8 24 z "
     />
</svg>
